X: 31089
T: Paddy Fahey's
R: reel
M: 4/4
K: Gmajor
dc|BGdB c2dc|BGdB cA3|BGdB cBcd|ed (3efg fdcA|
BGdB c2dc|BGdB cA3|fdfa gf (3de=f|ed(3efg fdfa|
g3a bgag|fddf ec3|g3a bgag|fdde =f3d|
g3a bgag|fddf ec3|d^cd=f edeg|fdfa g4|

